src/main/resources/icons/material/files/settings.svg

<?xml version="1.0" encoding="UTF-8" standalone="no"?>
<svg
   xmlns:dc="http://purl.org/dc/elements/1.1/"
   xmlns:cc="http://creativecommons.org/ns#"
   xmlns:rdf="http://www.w3.org/1999/02/22-rdf-syntax-ns#"
   xmlns:svg="http://www.w3.org/2000/svg"
   xmlns="http://www.w3.org/2000/svg"
   xmlns:sodipodi="http://sodipodi.sourceforge.net/DTD/sodipodi-0.dtd"
   xmlns:inkscape="http://www.inkscape.org/namespaces/inkscape"
   version="1.1"
   viewBox="0 0 24 24"
   width="16px"
   height="16px"
   id="svg4"
   sodipodi:docname="settings.svg"
   inkscape:version="0.92.3 (unknown)">
  <metadata
     id="metadata10">
    <rdf:RDF>
      <cc:Work
         rdf:about="">
        <dc:format>image/svg+xml</dc:format>
        <dc:type
           rdf:resource="http://purl.org/dc/dcmitype/StillImage" />
      </cc:Work>
    </rdf:RDF>
  </metadata>
  <defs
     id="defs8" />
  <sodipodi:namedview
     pagecolor="#ffffff"
     bordercolor="#666666"
     borderopacity="1"
     objecttolerance="10"
     gridtolerance="10"
     guidetolerance="10"
     inkscape:pageopacity="0"
     inkscape:pageshadow="2"
     inkscape:window-width="640"
     inkscape:window-height="491"
     id="namedview6"
     showgrid="false"
     showguides="false"
     inkscape:zoom="5.6568543"
     inkscape:cx="23.623593"
     inkscape:cy="4.1209992"
     inkscape:window-x="1239"
     inkscape:window-y="274"
     inkscape:window-maximized="0"
     inkscape:current-layer="svg4" />
  <path
     style="fill:#81cbc4;stroke-width:0.66666669"
     d="M 6.6679688 1.3339844 C 6.5013021 1.3339844 6.360651 1.4532813 6.3339844 1.6132812 L 6.0878906 3.3808594 C 5.6678906 3.547526 5.3076042 3.7732031 4.9609375 4.0332031 L 3.3007812 3.3671875 C 3.1541146 3.3071875 2.9745313 3.3670052 2.8945312 3.5136719 L 1.5605469 5.8203125 C 1.4738802 5.9669792 1.5139583 6.1460937 1.640625 6.2460938 L 3.0488281 7.3339844 C 3.0221615 7.560651 3.0019531 7.78 3.0019531 8 C 3.0019531 8.22 3.0221615 8.433151 3.0488281 8.6464844 L 1.640625 9.7539062 C 1.5139583 9.8539062 1.4738802 10.033021 1.5605469 10.179688 L 2.8945312 12.486328 C 2.9745313 12.632995 3.1541146 12.686146 3.3007812 12.632812 L 4.9609375 11.960938 C 5.3076042 12.227604 5.6678906 12.452474 6.0878906 12.619141 L 6.3339844 14.386719 C 6.360651 14.546719 6.5013021 14.666016 6.6679688 14.666016 L 9.3339844 14.666016 C 9.500651 14.666016 9.6413021 14.546719 9.6679688 14.386719 L 9.9140625 12.619141 C 10.334063 12.445807 10.694349 12.227604 11.041016 11.960938 L 12.701172 12.632812 C 12.847839 12.686146 13.027422 12.632995 13.107422 12.486328 L 14.441406 10.179688 C 14.521406 10.033021 14.487995 9.8539063 14.361328 9.7539062 L 12.955078 8.6464844 C 12.981745 8.433151 13.001953 8.22 13.001953 8 C 13.001953 7.78 12.981745 7.560651 12.955078 7.3339844 L 14.361328 6.2460938 C 14.487995 6.1460937 14.521406 5.9669792 14.441406 5.8203125 L 13.107422 3.5136719 C 13.027422 3.3670052 12.847839 3.3071875 12.701172 3.3671875 L 11.041016 4.0332031 C 10.694349 3.7732031 10.334063 3.547526 9.9140625 3.3808594 L 9.6679688 1.6132812 C 9.6413021 1.4532813 9.500651 1.3339844 9.3339844 1.3339844 L 6.6679688 1.3339844 z M 6.125 5.7070312 C 6.300819 5.6904334 6.4939406 5.7041863 6.703125 5.7519531 C 7.4289617 5.9177875 7.924921 6.245232 8.0722656 6.3261719 C 8.2195156 6.2451603 8.717524 5.9176925 9.4433594 5.7519531 C 11.116811 5.3698188 11.760248 7.2141741 10.773438 8.6054688 C 9.8918462 9.6177981 8.975469 10.084612 8.0722656 10.683594 C 7.1690396 10.084612 6.2546145 9.6177981 5.3730469 8.6054688 C 4.5095874 7.3880859 4.8942669 5.8232163 6.125 5.7070312 z "
     transform="scale(1.5)"
     id="path2" />
</svg>

<?xml version="1.0" encoding="UTF-8"?>
<svg width="16px" height="16px" version="1.1" viewBox="0 0 24 24" xmlns="http://www.w3.org/2000/svg" xmlns:cc="http://creativecommons.org/ns#" xmlns:dc="http://purl.org/dc/elements/1.1/" xmlns:rdf="http://www.w3.org/1999/02/22-rdf-syntax-ns#">
 <metadata>
  <rdf:RDF>
   <cc:Work rdf:about="">
    <dc:format>image/svg+xml</dc:format>
    <dc:type rdf:resource="http://purl.org/dc/dcmitype/StillImage"/>
    <dc:title/>
   </cc:Work>
  </rdf:RDF>
 </metadata>
 <path transform="scale(1.5)" d="m6.668 1.334c-0.16667 0-0.30732 0.1193-0.33398 0.2793l-0.24609 1.7676c-0.42 0.16667-0.78029 0.39234-1.127 0.65234l-1.6602-0.66602c-0.14667-0.06-0.32625-1.823e-4 -0.40625 0.14648l-1.334 2.3066c-0.086667 0.14667-0.046589 0.32578 0.080078 0.42578l1.4082 1.0879c-0.026667 0.22667-0.046875 0.44602-0.046875 0.66602s0.020208 0.43315 0.046875 0.64648l-1.4082 1.1074c-0.12667 0.1-0.16674 0.27911-0.080078 0.42578l1.334 2.3066c0.08 0.14667 0.25958 0.19982 0.40625 0.14648l1.6602-0.67187c0.34667 0.26667 0.70695 0.49154 1.127 0.6582l0.24609 1.7676c0.026667 0.16 0.16732 0.2793 0.33398 0.2793h2.666c0.16667 0 0.30732-0.1193 0.33398-0.2793l0.24609-1.7676c0.42-0.17333 0.78029-0.39154 1.127-0.6582l1.6602 0.67187c0.14667 0.053334 0.32625 1.83e-4 0.40625-0.14648l1.334-2.3066c0.08-0.14667 0.046589-0.32578-0.080078-0.42578l-1.4062-1.1074c0.026667-0.21333 0.046875-0.42648 0.046875-0.64648s-0.020208-0.43935-0.046875-0.66602l1.4062-1.0879c0.12667-0.1 0.16008-0.27911 0.080078-0.42578l-1.334-2.3066c-0.08-0.14667-0.25958-0.20648-0.40625-0.14648l-1.6602 0.66602c-0.34667-0.26-0.70695-0.48568-1.127-0.65234l-0.24609-1.7676c-0.026667-0.16-0.16732-0.2793-0.33398-0.2793h-2.666zm-0.54297 4.373c0.17582-0.016598 0.36894-0.0028449 0.57812 0.044922 0.72584 0.16583 1.2218 0.49328 1.3691 0.57422 0.14725-0.081012 0.64526-0.40848 1.3711-0.57422 1.6735-0.38213 2.3169 1.4622 1.3301 2.8535-0.88159 1.0123-1.798 1.4791-2.7012 2.0781-0.90323-0.59898-1.8177-1.0658-2.6992-2.0781-0.86346-1.2174-0.47878-2.7823 0.75195-2.8984z" fill="#9AA7B0" stroke-width=".66667"/>
</svg>
